style-guide/assets/xd-icons-bullet-list.svg

<?xml version="1.0" encoding="UTF-8"?>
<svg width="24px" height="24px" viewBox="0 0 24 24" version="1.1" xmlns="http://www.w3.org/2000/svg" xmlns:xlink="http://www.w3.org/1999/xlink">
    <!-- Generator: Sketch 51.3 (57544) - http://www.bohemiancoding.com/sketch -->
    <title>bulleted list</title>
    <desc>Created with Sketch.</desc>
    <defs>
        <path d="M3.00569326,19.9945117 C2.45286188,19.9945117 2,20.4463739 2,20.9992052 C2,21.5520366 2.45286188,22.0038988 3.00569326,22.0038988 C3.55852465,22.0038988 4.01038683,21.5520366 4.01038683,20.9992052 C4.01038683,20.4463739 3.55852465,19.9945117 3.00569326,19.9945117 M10.0006598,4.00428869 L21.0003049,4.00428869 C21.5531363,4.00428869 22,3.55742499 22,3.0045936 C22,2.45176221 21.5531363,2.00489851 21.0003049,2.00489851 L10.0006598,2.00489851 C9.44782841,2.00489851 9.00096471,2.45176221 9.00096471,3.0045936 C9.00096471,3.55742499 9.44782841,4.00428869 10.0006598,4.00428869 M3.00569326,10.9972558 C2.45286188,10.9972558 2,11.449118 2,12.0019494 C2,12.5547808 2.45286188,13.006643 3.00569326,13.006643 C3.55852465,13.006643 4.01038683,12.5547808 4.01038683,12.0019494 C4.01038683,11.449118 3.55852465,10.9972558 3.00569326,10.9972558 M3.00569326,2 C2.45286188,2 2,2.45186218 2,3.00469357 C2,3.55752495 2.45286188,4.00938714 3.00569326,4.00938714 C3.55852465,4.00938714 4.01038683,3.55752495 4.01038683,3.00469357 C4.01038683,2.45186218 3.55852465,2 3.00569326,2 M21.0002049,11.0021543 L10.0005598,11.0021543 C9.44772844,11.0021543 9.00086474,11.449018 9.00086474,12.0018494 C9.00086474,12.5546808 9.44772844,13.0015445 10.0005598,13.0015445 L21.0002049,13.0015445 C21.5530363,13.0015445 21.9999,12.5546808 21.9999,12.0018494 C21.9999,11.449018 21.5530363,11.0021543 21.0002049,11.0021543 M21.0002049,19.9994102 L10.0005598,19.9994102 C9.44772844,19.9994102 9.00086474,20.4462739 9.00086474,20.9991053 C9.00086474,21.5519367 9.44772844,21.9988004 10.0005598,21.9988004 L21.0002049,21.9988004 C21.5530363,21.9988004 21.9999,21.5519367 21.9999,20.9991053 C21.9999,20.4462739 21.5530363,19.9994102 21.0002049,19.9994102" id="path-1"></path>
    </defs>
    <g id="bulleted-list" stroke="none" stroke-width="1" fill="none" fill-rule="evenodd">
        <mask id="mask-2" fill="white">
            <use xlink:href="#path-1"></use>
        </mask>
        <use id="icons/24px/Bulleted-List" fill="#000000" xlink:href="#path-1"></use>
    </g>
</svg>

<svg viewBox="0 0 24 24" xmlns="http://www.w3.org/2000/svg">
    <path d="M3.006 19.995c-.553 0-1.006.451-1.006 1.004 0 .553.453 1.005 1.006 1.005.553 0 1.004-.452 1.004-1.005 0-.553-.451-1.004-1.004-1.004M10 4.005h11a.999.999 0 1 0 0-2H10a.999.999 0 1 0 0 2m-6.995 6.992c-.553 0-1.006.452-1.006 1.005 0 .553.453 1.005 1.006 1.005.553 0 1.004-.452 1.004-1.005 0-.553-.451-1.005-1.004-1.005m0-8.997C2.453 2 2 2.452 2 3.005c0 .553.453 1.004 1.006 1.004.553 0 1.004-.451 1.004-1.004C4.01 2.452 3.56 2 3.006 2M21 11.002H10a.999.999 0 1 0 0 2h11a.999.999 0 1 0 0-2M21 20H10a.999.999 0 1 0 0 2h11a.999.999 0 1 0 0-2"/>
</svg>
